X: 37642
T: Snow On The Hills
R: reel
M: 4/4
K: Gdorian
G/A/G dG BGdG|GABd cAFA|G/A/G dG Bcde|f2 fd cAFA|
G/A/G dG BG d2|GA B/c/d cAFA|GABc d2 e/f/g|fdcB AFcA||
dgga bgag|dggf dfcA|dgga bg b/a/g|fd c/B/A f2 Ac|
dgga bgag|dggf d2 fg|abag f2 g/f/e|de f/e/d c2 FA||

